X: 12877
T: Ferry
R: reel
M: 4/4
K: Dmajor
DEFG ABcd|B2 BA BcdB|A2 AB AFDF|(3GGG FG EDB,E|
DA,DE FGAd|B2 BA BcdB|A2 AB AFDF|EDCE D3 z:|
Ad (3ddd df (3fff|Bg (3ggg gfga|fgfe dcdB|ABde fa (3aaa|
Ad (3ddd df (3fff|Bg (3ggg ga b2|abaf defd|edce d3z:|
BF (3FFF BFdF|BF (3FFF AECE|BF (3FFF BABd|cedc dcBA|
BF (3FFF BFdF|BF (3FFF B,3 B,|A,B,CD EAce|aecA B3z:|

